Dominus_Dark_Funeral/22/mimes/application-msword.svg

<svg xmlns="http://www.w3.org/2000/svg" width="24" height="24" version="1"><path d="M14.28 5.525V3.557h7.934c.434 0 .786.352.786.786v14.956a.786.786 0 0 1-.786.785H14.28v-1.967h6.937v-.787H14.28v-1.574h6.937v-.787H14.28v-1.574h6.937v-.787H14.28v-1.574h6.937v-.787H14.28V8.673h6.937v-.787H14.28V6.312h6.937v-.787zM1 3.44l12.288-2.048v21.214L1 20.56zm6.265 7.722l1.342 4.593h1.04l1.655-6.433h-1.134l-1.096 4.229-1.31-4.23h-.999l-1.319 4.271-1.073-4.27H3.228l1.645 6.433h1.05z" fill="#e6e6e6" fill-rule="evenodd"/></svg>

<?xml version="1.0" encoding="UTF-8" standalone="no"?>
<svg
   xmlns:dc="http://purl.org/dc/elements/1.1/"
   xmlns:cc="http://creativecommons.org/ns#"
   xmlns:rdf="http://www.w3.org/1999/02/22-rdf-syntax-ns#"
   xmlns:svg="http://www.w3.org/2000/svg"
   xmlns="http://www.w3.org/2000/svg"
   xmlns:sodipodi="http://sodipodi.sourceforge.net/DTD/sodipodi-0.dtd"
   xmlns:inkscape="http://www.inkscape.org/namespaces/inkscape"
   width="24"
   height="24"
   version="1"
   id="svg4"
   sodipodi:docname="application-msword.svg"
   inkscape:version="0.92.4 (5da689c313, 2019-01-14)">
  <metadata
     id="metadata10">
    <rdf:RDF>
      <cc:Work
         rdf:about="">
        <dc:format>image/svg+xml</dc:format>
        <dc:type
           rdf:resource="http://purl.org/dc/dcmitype/StillImage" />
        <dc:title></dc:title>
      </cc:Work>
    </rdf:RDF>
  </metadata>
  <defs
     id="defs8" />
  <sodipodi:namedview
     pagecolor="#ffffff"
     bordercolor="#666666"
     borderopacity="1"
     objecttolerance="10"
     gridtolerance="10"
     guidetolerance="10"
     inkscape:pageopacity="0"
     inkscape:pageshadow="2"
     inkscape:window-width="1112"
     inkscape:window-height="480"
     id="namedview6"
     showgrid="false"
     inkscape:zoom="9.8333333"
     inkscape:cx="1.0677966"
     inkscape:cy="12"
     inkscape:window-x="0"
     inkscape:window-y="25"
     inkscape:window-maximized="0"
     inkscape:current-layer="svg4" />
  <path
     d="M 14.28,5.525 V 3.557 h 7.934 C 22.648,3.557 23,3.909 23,4.343 v 14.956 a 0.786,0.786 0 0 1 -0.786,0.785 H 14.28 v -1.967 h 6.937 V 17.33 H 14.28 v -1.574 h 6.937 V 14.969 H 14.28 v -1.574 h 6.937 V 12.608 H 14.28 v -1.574 h 6.937 V 10.247 H 14.28 V 8.673 h 6.937 V 7.886 H 14.28 V 6.312 h 6.937 V 5.525 Z M 1,3.44 13.288,1.392 V 22.606 L 1,20.56 Z m 6.265,7.722 1.342,4.593 h 1.04 L 11.302,9.322 H 10.168 L 9.072,13.551 7.762,9.321 H 6.763 L 5.444,13.592 4.371,9.322 H 3.228 l 1.645,6.433 h 1.05 z"
     id="path2"
     inkscape:connector-curvature="0"
     style="fill:#e6e6e6;fill-rule:evenodd" />
</svg>
